src/images/svg/about-us/shield.svg

<svg width="64" height="65" viewBox="0 0 64 65" fill="none" xmlns="http://www.w3.org/2000/svg">
<g clip-path="url(#clip0_6529_147091)">
<path d="M6.37207 20.9817V35.5208C6.39373 38.4594 7.03576 41.3603 8.25614 44.0337C9.47651 46.707 11.2477 49.0924 13.4538 51.0338V50.3243C13.4575 48.3919 14.2268 46.5397 15.5932 45.1732C16.9596 43.8068 18.8118 43.0375 20.7442 43.0339H25.6556C27.588 43.0375 29.4402 43.8068 30.8066 45.1732C32.173 46.5397 32.9423 48.3919 32.946 50.3243V51.0199C35.1405 49.0736 36.9022 46.6885 38.1173 44.0187C39.3323 41.349 39.9737 38.454 39.9999 35.5208V20.9817L23.1929 15.2078L6.37207 20.9817ZM29.7042 33.5034C29.7042 34.7885 29.3232 36.0447 28.6092 37.1132C27.8953 38.1817 26.8805 39.0145 25.6933 39.5062C24.5061 39.998 23.1996 40.1267 21.9393 39.876C20.6789 39.6253 19.5212 39.0064 18.6125 38.0978C17.7038 37.1891 17.085 36.0314 16.8343 34.771C16.5836 33.5106 16.7123 32.2042 17.204 31.017C17.6958 29.8297 18.5286 28.815 19.5971 28.101C20.6656 27.3871 21.9218 27.006 23.2069 27.006C24.0601 27.006 24.905 27.1741 25.6933 27.5006C26.4816 27.8271 27.1979 28.3057 27.8012 28.9091C28.4045 29.5124 28.8831 30.2287 29.2097 31.017C29.5362 31.8053 29.7042 32.6502 29.7042 33.5034Z" fill="#85ACB0"/>
<path d="M23.193 8.45776L0 16.4995V35.5186C0.0630069 40.6318 1.53377 45.6287 4.25079 49.9608C6.96781 54.2928 10.826 57.7923 15.4017 60.0751L23.193 64.1099L30.9704 60.0751C35.5462 57.7923 39.4044 54.2928 42.1214 49.9608C44.8384 45.6287 46.3092 40.6318 46.3722 35.5186V16.4995L23.193 8.45776ZM42.3235 35.5186C42.2588 39.8886 40.9909 44.1561 38.6592 47.8525C36.3275 51.5489 33.0221 54.5312 29.1061 56.4717L23.193 59.5325L17.2661 56.4717C13.3537 54.528 10.052 51.5446 7.72299 47.8486C5.39397 44.1526 4.12757 39.8867 4.06261 35.5186V19.3934L23.193 12.7569L42.3235 19.3934V35.5186Z" fill="#85ACB0"/>
<g style="mix-blend-mode:multiply">
<path d="M47.3045 33.5012C56.5253 33.5012 64.0002 26.0263 64.0002 16.8055C64.0002 7.58476 56.5253 0.109863 47.3045 0.109863C38.0838 0.109863 30.6089 7.58476 30.6089 16.8055C30.6089 26.0263 38.0838 33.5012 47.3045 33.5012Z" fill="#FF444F"/>
</g>
<path d="M44.9392 23.4142L38.9565 17.4316L41.4609 14.9272L44.9392 18.4055L53.1478 10.1968L55.6522 12.7011L44.9392 23.4142Z" fill="white"/>
</g>
<defs>
<clipPath id="clip0_6529_147091">
<rect width="64" height="64" fill="white" transform="translate(0 0.109863)"/>
</clipPath>
</defs>
</svg>

<svg width="64" height="65" fill="none" xmlns="http://www.w3.org/2000/svg"><g clip-path="url(#a)"><path d="M6.372 20.982V35.52a20.87 20.87 0 0 0 7.082 15.513v-.71a7.305 7.305 0 0 1 7.29-7.29h4.912a7.304 7.304 0 0 1 7.29 7.29v.696A20.967 20.967 0 0 0 40 35.52V20.983l-16.807-5.774-16.82 5.774Zm23.332 12.521a6.497 6.497 0 1 1-12.994 0 6.497 6.497 0 0 1 12.994 0Z" fill="#85ACB0"/><path d="M23.193 8.458 0 16.5v19.019a27.826 27.826 0 0 0 15.402 24.556l7.791 4.035 7.777-4.035A27.825 27.825 0 0 0 46.372 35.52v-19.02L23.193 8.459Zm19.13 27.06a23.777 23.777 0 0 1-13.217 20.954l-5.913 3.06-5.927-3.06A23.792 23.792 0 0 1 4.063 35.519V19.393l19.13-6.636 19.13 6.636V35.52Z" fill="#85ACB0"/><path d="M47.304 33.501C56.525 33.501 64 26.026 64 16.806 64 7.584 56.525.11 47.304.11c-9.22 0-16.695 7.475-16.695 16.695 0 9.221 7.475 16.696 16.695 16.696Z" fill="#FF444F" style="mix-blend-mode:multiply"/><path d="m44.94 23.414-5.983-5.982 2.504-2.505 3.478 3.479 8.209-8.21 2.504 2.505L44.94 23.414Z" fill="#fff"/></g><defs><clipPath id="a"><path fill="#fff" transform="translate(0 .11)" d="M0 0h64v64H0z"/></clipPath></defs></svg>
